svgs/thin/vector-circle.svg

<svg xmlns="http://www.w3.org/2000/svg" viewBox="0 0 512 512"><!--! Font Awesome Pro 6.1.1 by @fontawesome - https://fontawesome.com License - https://fontawesome.com/license (Commercial License) Copyright 2022 Fonticons, Inc. --><path d="M208 45.35V32C208 14.33 222.3 0 240 0H272C289.7 0 304 14.33 304 32V45.35C384.8 63.68 448.3 127.2 466.6 208H480C497.7 208 512 222.3 512 240V272C512 289.7 497.7 304 480 304H466.6C448.3 384.8 384.8 448.3 304 466.6V480C304 497.7 289.7 512 272 512H240C222.3 512 208 497.7 208 480V466.6C127.2 448.3 63.68 384.8 45.35 304H32C14.33 304 0 289.7 0 272V240C0 222.3 14.33 208 32 208H45.35C63.68 127.2 127.2 63.68 208 45.35V45.35zM272 16H240C231.2 16 224 23.16 224 32V42.35L224 58.55L224 64C224 72.84 231.2 80 240 80H272C280.8 80 288 72.84 288 64V32C288 23.16 280.8 16 272 16zM64 208C81.67 208 96 222.3 96 240V272C96 289.7 81.67 304 64 304H61.8C79.51 375.9 136.1 432.5 208 450.2V448C208 430.3 222.3 416 240 416H272C289.7 416 304 430.3 304 448V450.2C375.9 432.5 432.5 375.9 450.2 304H448C430.3 304 416 289.7 416 272V240C416 222.3 430.3 208 448 208H450.2C432.5 136.1 375.9 79.51 304 61.8V64C304 81.67 289.7 96 272 96H240C222.3 96 208 81.67 208 64V61.8C136.1 79.51 79.51 136.1 61.8 208H64zM58.55 288H64C72.84 288 80 280.8 80 272V240C80 231.2 72.84 224 64 224H32C23.16 224 16 231.2 16 240V272C16 280.8 23.16 288 32 288H42.35H58.55V288zM224 480C224 488.8 231.2 496 240 496H272C280.8 496 288 488.8 288 480V448C288 439.2 280.8 432 272 432H240C231.2 432 224 439.2 224 448L224 453.5L224 469.6V480zM480 288C488.8 288 496 280.8 496 272V240C496 231.2 488.8 224 480 224H448C439.2 224 432 231.2 432 240V272C432 280.8 439.2 288 448 288L453.5 287.1L469.6 288H480z"/></svg>

<svg xmlns="http://www.w3.org/2000/svg" viewBox="0 0 512 512"><!--! Font Awesome Pro 6.5.1 by @fontawesome - https://fontawesome.com License - https://fontawesome.com/license (Commercial License) Copyright 2023 Fonticons, Inc. --><path d="M272 16H240c-8.8 0-16 7.2-16 16V42.4s0 0 0 0V58.5s0 0 0 0V64c0 8.8 7.2 16 16 16h32c8.8 0 16-7.2 16-16V32c0-8.8-7.2-16-16-16zM208 45.4V32c0-17.7 14.3-32 32-32h32c17.7 0 32 14.3 32 32V45.4C384.8 63.7 448.3 127.2 466.6 208H480c17.7 0 32 14.3 32 32v32c0 17.7-14.3 32-32 32H466.6C448.3 384.8 384.8 448.3 304 466.6V480c0 17.7-14.3 32-32 32H240c-17.7 0-32-14.3-32-32V466.6C127.2 448.3 63.7 384.8 45.4 304H32c-17.7 0-32-14.3-32-32V240c0-17.7 14.3-32 32-32H45.4C63.7 127.2 127.2 63.7 208 45.4zM61.8 208H64c17.7 0 32 14.3 32 32v32c0 17.7-14.3 32-32 32H61.8C79.5 375.9 136.1 432.5 208 450.2V448c0-17.7 14.3-32 32-32h32c17.7 0 32 14.3 32 32v2.2c71.9-17.7 128.5-74.3 146.2-146.2H448c-17.7 0-32-14.3-32-32V240c0-17.7 14.3-32 32-32h2.2C432.5 136.1 375.9 79.5 304 61.8V64c0 17.7-14.3 32-32 32H240c-17.7 0-32-14.3-32-32V61.8C136.1 79.5 79.5 136.1 61.8 208zm-3.3 80H64c8.8 0 16-7.2 16-16V240c0-8.8-7.2-16-16-16H32c-8.8 0-16 7.2-16 16v32c0 8.8 7.2 16 16 16H42.4s0 0 0 0H58.5s0 0 0 0zM224 469.6V480c0 8.8 7.2 16 16 16h32c8.8 0 16-7.2 16-16V448c0-8.8-7.2-16-16-16H240c-8.8 0-16 7.2-16 16v5.5s0 0 0 0v16.2s0 0 0 0zM469.6 288H480c8.8 0 16-7.2 16-16V240c0-8.8-7.2-16-16-16H448c-8.8 0-16 7.2-16 16v32c0 8.8 7.2 16 16 16h5.5s0 0 0 0h16.2s0 0 0 0z"/></svg>
